X:1
T:Dura, 88.88.88
T:Dura, 88.88.88
T:Henry John Gauntlett (1805-1876)
T:Public Domain Courtesy of the Cyber Hymnal™
C:Henry John Gauntlett (1805-1876)
Z:Public Domain
Z:Courtesy of the Cyber Hymnal™
%%score ( 1 2 ) ( 3 4 )
L:1/8
Q:1/4=108
M:4/4
K:E
V:1 treble 
V:2 treble 
V:3 bass 
V:4 bass 
V:1
 [GB]2 | [GB]2 [^^F^A]2 [GB]2 [Ee]2 | [EG]2 [DF]2 [EB]2 E2 | [B,E]2 [B,D]2 [B,E]2 [EG]2 | %4
 [EF]2 [DF]2 [EG]2 [GB]2 | [GB]2 [^^F^A]2 [GB]2 [Ge]2 | [EG]2 [EG]2 [Ec]2 [Fc]2 | %7
 F2 [E^A]2 [DB]2 [Fd]2 | [Gc]2 [Ec]2 [DB]2 [FA]2 | [EG]2 [DF]2 [EB]2 [EB]2 | %10
 [FA]2 [EG]2 [DF]2 [FA]2 | [EG]2 [DF]2 [EB]2 [Ee]2 | [EG]2 [DF]2 E2 |] %13
V:2
 x2 | x8 | x6 E2 | x8 | x8 | x8 | x8 | F2 x6 | x8 | x8 | x8 | x8 | x4 E2 |] %13
V:3
 [E,B,]2 | [E,B,]2 [E,C]2 [E,B,]2 [G,B,]2 | B,2 [A,B,]2 [G,B,]2 [A,C]2 | %3
 [G,B,]2 [F,A,]2 [E,G,]2 [E,B,]2 | [B,,B,]2 [B,,B,]2 [E,B,]2 [E,B,]2 | %5
 [E,B,]2 [E,C]2 [E,B,]2 [C,C]2 | C2 [B,C]2 [^A,F]2 [A,E]2 | [B,D]2 [F,C]2 [G,B,]2 [D,B,]2 | %8
 [E,B,]2 [F,^A,]2 [B,,B,]2 [B,,B,]2 | B,2 [A,B,]2 [G,B,]2 [G,B,]2 | %10
 [D,B,]2 [E,B,]2 [A,,B,]2 [A,,B,]2 | [E,B,]2 [F,A,]2 [G,B,]2 [A,C]2 | B,2 [B,,A,]2 [E,G,]2 |] %13
V:4
 x2 | x8 | B,2 x6 | x8 | x8 | x8 | C2 x6 | x8 | x8 | B,2 x6 | x8 | x8 | B,2 x4 |] %13

